X:315
T:Nashville Blues 
C:Arranged by Mike Stangeland
N:
R:bluegrass
L:1/8
Q:1/4=220
M:4/4
K:F
z2 A2 c2 A2 | "Dm"cd Dd dD d2 | "F"c2 D2 d2 D2 | "Dm"GA AA AG F2 | CD DD {_D}=D2 D2 | 
cd Dd dD d2 | "F"c2 D2 d2 D2 | "A7"GA cc AG F2 | GA cc AG F2 | "Dm"D2 {c}d2 dd dA | 
"F"c2 cc cA d2 | "Dm"GA cc AG F2 | CD [AD][AD] {_D}=D2 [A2D2] | GA AA AG FG | 
(3FGF D2 G2 F2 | D2 [AD][AD] {_D}=D2 [A2D2] | "D"F_G AA FG A2 | "Dm"GA AA AG FG | 
(3"A7"FGF D2 G2 F2 | "Dm"D2 A,C DF DC | D2 DE FG Ac | [d2A2] [dA][dA] [dA][dA] [dA][dA] | 
"F"[c4A4] [d4A4] | {G}"Dm"AA Ac AG FE | D2 A,C DE FG | [dA][dA] [dA][dA] [dA][dA] [d2A2] | 
"F"[cA][cA] [cA][cA] [d4A4] | "A7"[cG][cG] [cG][cG] [cG][cG] [cG][cG] | [_dG][dG] [dG][dG] [dG][dG] [dG][dG] | 
"Dm"[d2A2] [dA][dA] [dA][dA] [dA][dA] | "F"[c4A4] [d4A4] | {G}"Dm"AA Ac AG FE | 
[A8D8] | {G}AA Ac AG FE | D2 G,A, CD (3EFE | [A2D2] [AD][AD] [AD][AD] [AD][AD] | 
"D"[d2_G2] [dG][dG] [d4G4] | "Dm"[dA][dA] [dA][dA] dc Ad | "A7"cA Gc AG FC | "Dm"D2 cd AG EC | 
D2 AA AA cA | cd dd d2 fe | "F"dc AG FA dc | "Dm"AG FE DC DE | D2 FE FG Ac | cd dd dA cd | 
"F"cA Gc AG A=B | "A7"cA Ec AE Ac | _dA Ed AE Ad | "Dm"dd dd dA FD | "F"A,C DF ED CE | 
"Dm"DF G_A =A_A GF | D2 A2 c2 A2 | dd dd df dc | Ac A_A GF DC | D2 [AD][AD] [AD][AD] [AD][AD] | 
"D"[A_GD][AGD] [AGD][AGD] [A4G4D4] | "Dm"fe dA ed AF | {G}"A7"_A=A _AG FD CF | 
"Dm"[A8D8] | z8 | 


